X: 1
T: Illiam Y Thalhear
R: reel
M: 4/4
L: 1/8
K: Ador
A2 c>d e2 e2|f2 d2 e2 A2|A2 c>d e2 e2|f2 g2 e4|
c2 c2 B4|A2 A2 G4|A2 A2 E2 A2|BA G2 A4||

